2019/site/resources/flags/light_en_bw.svg

<?xml version="1.0" encoding="UTF-8" standalone="no"?><!DOCTYPE svg PUBLIC "-//W3C//DTD SVG 1.1//EN" "http://www.w3.org/Graphics/SVG/1.1/DTD/svg11.dtd"><svg width="100%" height="100%" viewBox="0 0 53 35" version="1.1" xmlns="http://www.w3.org/2000/svg" xmlns:xlink="http://www.w3.org/1999/xlink" xml:space="preserve" xmlns:serif="http://www.serif.com/" style="fill-rule:evenodd;clip-rule:evenodd;stroke-linejoin:round;stroke-miterlimit:2;"><path d="M23.158,34.998l-2.041,0l0,-10.324l-15.515,10.324l-1.634,0l17.149,-11.491l0,-0.875l-2.567,0l-17.226,11.594c-0.807,-0.647 -1.324,-1.64 -1.324,-2.753l0,-0.207l12.95,-8.634l-12.95,0l0,-2.041l23.158,0l0,14.407Zm29.342,-12.366l-12.95,0l12.95,8.634l0,0.207c0,0.305 -0.039,0.601 -0.112,0.884l-14.53,-9.725l-3.85,0l17.243,11.532c-0.614,0.52 -1.409,0.834 -2.276,0.834l-2.077,0l-15.515,-10.324l0,10.324l-2.041,0l0,-14.407l23.158,0l0,2.041Zm-31.383,-22.632l2.041,0l0,14.407l-23.158,0l0,-2.041l12.95,0l-12.95,-8.634l0,-0.207c0,-0.305 0.039,-0.602 0.112,-0.884l14.53,9.725l3.85,0l-17.243,-11.532c0.614,-0.52 1.409,-0.834 2.276,-0.834l2.077,0l15.515,10.324l0,-10.324Zm27.415,0l-17.149,11.491l0,0.875l2.567,0l17.226,-11.594c0.807,0.646 1.324,1.64 1.324,2.753l0,0.207l-12.95,8.634l12.95,0l0,2.041l-23.158,0l0,-14.407l2.041,0l0,10.324l15.515,-10.324l1.634,0Z" style="fill:#37363b;"/></svg>

<?xml version="1.0" encoding="UTF-8" standalone="no"?>
<!DOCTYPE svg PUBLIC "-//W3C//DTD SVG 1.1//EN" "http://www.w3.org/Graphics/SVG/1.1/DTD/svg11.dtd">
<svg width="100%" height="100%" viewBox="0 0 53 35" version="1.1" xmlns="http://www.w3.org/2000/svg" xmlns:xlink="http://www.w3.org/1999/xlink" xml:space="preserve" xmlns:serif="http://www.serif.com/" style="fill-rule:evenodd;clip-rule:evenodd;stroke-linejoin:round;stroke-miterlimit:2;">
    <g transform="matrix(1,0,0,1,0.25,0.001)">
        <path d="M23.158,34.998L21.117,34.998L21.117,24.674L5.602,34.998L3.968,34.998L21.117,23.507L21.117,22.632L18.55,22.632L1.324,34.226C0.517,33.579 0,32.586 0,31.473L0,31.266L12.95,22.632L0,22.632L0,20.591L23.158,20.591L23.158,34.998ZM52.5,22.632L39.55,22.632L52.5,31.266L52.5,31.473C52.5,31.778 52.461,32.074 52.388,32.357L37.858,22.632L34.008,22.632L51.251,34.164C50.637,34.684 49.842,34.998 48.975,34.998L46.898,34.998L31.383,24.674L31.383,34.998L29.342,34.998L29.342,20.591L52.5,20.591L52.5,22.632ZM21.117,-0L23.158,-0L23.158,14.407L0,14.407L0,12.366L12.95,12.366L0,3.732L0,3.525C0,3.22 0.039,2.923 0.112,2.641L14.642,12.366L18.492,12.366L1.249,0.834C1.863,0.314 2.658,-0 3.525,-0L5.602,-0L21.117,10.324L21.117,-0ZM48.532,-0L31.383,11.491L31.383,12.366L33.95,12.366L51.176,0.772C51.983,1.418 52.5,2.412 52.5,3.525L52.5,3.732L39.55,12.366L52.5,12.366L52.5,14.407L29.342,14.407L29.342,-0L31.383,-0L31.383,10.324L46.898,-0L48.532,-0Z" style="fill:rgb(55,54,59);"/>
    </g>
</svg>
